;FLAVOR:Marlin
;TIME:8457
;Filament used: 7.2417m
;Layer height: 0.28
;MINX:72.836
;MINY:77.835
;MINZ:0.336
;MAXX:162.165
;MAXY:157.165
;MAXZ:33.386
;Generated with Cura_SteamEngine 4.10.0
M140 S80
M105
M190 S80
M104 S230
M105
M109 S230
M82 ;absolute extrusion mode
; Ender 3 Custom Start G-code
G92 E0 ; Reset Extruder
G28 ; Home all axes
G1 Z2.0 F3000 ; Move Z Axis up little to prevent scratching of Heat Bed
G1 X0.1 Y20 Z0.3 F5000.0 ; Move to start position
G1 X0.1 Y200.0 Z0.3 F1500.0 E15 ; Draw the first line
G1 X0.4 Y200.0 Z0.3 F5000.0 ; Move to side a little
G1 X0.4 Y20 Z0.3 F1500.0 E30 ; Draw the second line
G92 E0 ; Reset Extruder
G1 Z2.0 F3000 ; Move Z Axis up little to prevent scratching of Heat Bed
G1 X5 Y20 Z0.3 F5000.0 ; Move over to prevent blob squish
G92 E0
G92 E0
G1 F2700 E-5
;LAYER_COUNT:114
;LAYER:-6
M107
G0 F9000 X74.842 Y79.61 Z0.336
;TYPE:SUPPORT-INTERFACE
G1 F2700 E0
G1 F1125 X74.952 Y79.515 E0.01624
G1 X75.268 Y79.29 E0.05959
G1 X75.298 Y79.271 E0.06356
G1 X75.653 Y79.096 E0.10779
G1 X75.682 Y79.084 E0.1113
G1 X76.038 Y78.975 E0.15291
G1 X76.11 Y78.96 E0.16113
G1 X76.456 Y78.911 E0.20018
G1 X76.708 Y78.9 E0.22837
G1 X158.255 Y78.9 E9.34158
G1 X158.618 Y78.921 E9.38221
G1 X158.987 Y78.982 E9.42401
G1 X159.038 Y78.995 E9.42989
G1 X159.384 Y79.111 E9.47067
G1 X159.433 Y79.133 E9.47668
G1 X159.765 Y79.309 E9.51867
G1 X159.816 Y79.343 E9.52552
G1 X160.102 Y79.558 E9.5655
G1 X160.391 Y79.842 E9.61079
G1 X160.485 Y79.952 E9.62696
G1 X160.71 Y80.268 E9.67031
G1 X160.729 Y80.298 E9.67428
G1 X160.904 Y80.653 E9.71851
G1 X160.916 Y80.682 E9.72201
G1 X161.025 Y81.037 E9.76351
G1 X161.04 Y81.11 E9.77184
G1 X161.089 Y81.456 E9.8109
G1 X161.1 Y81.696 E9.83774
G1 X161.1 Y153.255 E17.83475
G1 X161.079 Y153.618 E17.87539
G1 X161.017 Y153.995 E17.91808
G1 X161.008 Y154.031 E17.92223
G1 X160.889 Y154.384 E17.96386
G1 X160.869 Y154.429 E17.96937
G1 X160.691 Y154.765 E18.01186
G1 X160.657 Y154.816 E18.01871
G1 X160.447 Y155.096 E18.05782
G1 X160.171 Y155.379 E18.102
G1 X160.041 Y155.49 E18.1211
G1 X159.732 Y155.71 E18.16349
G1 X159.702 Y155.729 E18.16746
G1 X159.347 Y155.904 E18.21169
G1 X159.318 Y155.916 E18.2152
G1 X158.962 Y156.025 E18.25681
G1 X158.89 Y156.04 E18.26503
G1 X158.544 Y156.089 E18.30408
G1 X158.292 Y156.1 E18.33227
G1 X151.745 Y156.1 E19.06392
G1 X151.382 Y156.079 E19.10456
G1 X151.013 Y156.018 E19.14635
G1 X150.962 Y156.005 E19.15223
G1 X150.616 Y155.889 E19.19302
G1 X150.567 Y155.867 E19.19902
G1 X150.23 Y155.688 E19.24166
G1 X150.175 Y155.652 E19.24901
G1 X149.73 Y155.318 E19.31119
G1 X149.171 Y154.95 E19.38598
G1 X148.557 Y154.65 E19.46235
G1 X147.911 Y154.429 E19.53865
G1 X147.243 Y154.292 E19.61486
G1 X146.561 Y154.24 E19.6913
G1 X145.879 Y154.276 E19.76762
G1 X145.208 Y154.396 E19.84379
G1 X144.556 Y154.6 E19.92014
G1 X143.935 Y154.885 E19.9965
G1 X143.359 Y155.244 E20.07235
G1 X143.094 Y155.452 E20.11
G1 X142.735 Y155.709 E20.15934
G1 X142.702 Y155.729 E20.16365
G1 X142.347 Y155.904 E20.20788
G1 X142.318 Y155.916 E20.21139
G1 X141.962 Y156.025 E20.253
G1 X141.89 Y156.04 E20.26122
G1 X141.544 Y156.089 E20.30027
G1 X141.292 Y156.1 E20.32846
G1 X134.745 Y156.1 E21.06011
G1 X134.382 Y156.079 E21.10074
G1 X134.013 Y156.018 E21.14254
G1 X133.962 Y156.005 E21.14842
G1 X133.616 Y155.889 E21.18921
G1 X133.567 Y155.867 E21.19521
G1 X133.235 Y155.691 E21.2372
G1 X133.182 Y155.656 E21.2443
G1 X132.905 Y155.448 E21.28301
G1 X132.609 Y155.158 E21.32932
G1 X132.511 Y155.043 E21.34621
G1 X132.29 Y154.732 E21.38884
G1 X132.271 Y154.702 E21.39281
G1 X132.096 Y154.347 E21.43704
G1 X132.084 Y154.318 E21.44055
G1 X131.975 Y153.962 E21.48216
G1 X131.959 Y153.889 E21.49051
G1 X131.911 Y153.543 E21.52955
G1 X131.9 Y153.304 E21.55628
G1 X131.9 Y148.36 E22.1088
G1 X131.858 Y147.692 E22.18359
G1 X131.729 Y147.021 E22.25995
G1 X131.516 Y146.372 E22.33629
G1 X131.224 Y145.755 E22.41257
G1 X130.856 Y145.18 E22.48887
G1 X130.418 Y144.656 E22.56519
G1 X129.918 Y144.192 E22.64142
G1 X129.362 Y143.793 E22.7179
G1 X128.762 Y143.469 E22.7941
G1 X128.126 Y143.223 E22.87031
G1 X127.457 Y143.057 E22.94734
G1 X126.501 Y142.973 E23.05459
G1 X126.415 Y142.973 E23.0642
G1 X126.027 Y142.943 E23.10769
G1 X125.984 Y142.936 E23.11256
G1 X125.697 Y142.865 E23.1456
G1 X125.041 Y142.746 E23.2201
G1 X124.585 Y142.712 E23.27121
G1 X124.326 Y142.704 E23.30016
G1 X123.967 Y142.664 E23.34053
G1 X123.916 Y142.654 E23.34634
G1 X123.549 Y142.549 E23.389
G1 X123.505 Y142.533 E23.39423
G1 X123.173 Y142.377 E23.43523
G1 X123.136 Y142.355 E23.44004
G1 X122.818 Y142.137 E23.48312
G1 X122.783 Y142.108 E23.4882
G1 X122.507 Y141.842 E23.53104
G1 X122.326 Y141.617 E23.56331
G1 X122.113 Y141.251 E23.61063
G1 X121.998 Y141.027 E23.63877
G1 X121.869 Y140.732 E23.67476
G1 X121.824 Y140.619 E23.68835
G1 X121.733 Y140.362 E23.71882
G1 X121.687 Y140.218 E23.73571
G1 X121.579 Y139.827 E23.78104
G1 X121.525 Y139.592 E23.80799
G1 X121.47 Y139.297 E23.84152
G1 X121.446 Y139.116 E23.86193
G1 X121.421 Y138.839 E23.89301
G1 X121.407 Y138.582 E23.92177
G1 X121.414 Y138.284 E23.95509
G1 X121.45 Y137.89 E23.9993
G1 X121.477 Y137.692 E24.02163
G1 X121.536 Y137.38 E24.05712
G1 X121.603 Y137.108 E24.08842
G1 X121.719 Y136.774 E24.12794
G1 X121.878 Y136.436 E24.16968
G1 X121.901 Y136.395 E24.17493
G1 X122.111 Y136.09 E24.21632
G1 X122.153 Y136.039 E24.2237
G1 X122.399 Y135.782 E24.26346
G1 X122.439 Y135.746 E24.26947
G1 X122.831 Y135.453 E24.32416
G1 X123.344 Y135.014 E24.39962
G1 X123.455 Y134.901 E24.41732
G1 X124.138 Y134.112 E24.53394
G1 X124.156 Y134.095 E24.53671
G1 X124.46 Y133.842 E24.58091
G1 X124.486 Y133.824 E24.58444
G1 X124.811 Y133.633 E24.62657
G1 X124.864 Y133.607 E24.63317
G1 X125.199 Y133.478 E24.67329
G1 X125.244 Y133.464 E24.67855
G1 X125.622 Y133.389 E24.72162
G1 X125.991 Y133.355 E24.76303
G1 X126.201 Y133.362 E24.78651
G1 X126.798 Y133.366 E24.85323
G1 X127.476 Y133.286 E24.92953
G1 X128.139 Y133.12 E25.00591
G1 X128.775 Y132.873 E25.08215
G1 X129.374 Y132.546 E25.15842
G1 X129.928 Y132.147 E25.23472
G1 X130.427 Y131.681 E25.31102
G1 X130.864 Y131.156 E25.38735
G1 X131.231 Y130.579 E25.46377
G1 X131.522 Y129.962 E25.54001
G1 X131.732 Y129.312 E25.61635
G1 X131.86 Y128.642 E25.69258
G1 X131.9 Y127.986 E25.76602
G1 X131.9 Y113.487 E27.38635
G1 X131.858 Y112.819 E27.46115
G1 X131.729 Y112.148 E27.53751
G1 X131.516 Y111.499 E27.61384
G1 X131.224 Y110.882 E27.69012
G1 X130.856 Y110.307 E27.76642
G1 X130.418 Y109.783 E27.84274
G1 X129.918 Y109.319 E27.91897
G1 X129.362 Y108.92 E27.99545
G1 X128.762 Y108.596 E28.07165
G1 X128.126 Y108.35 E28.14786
G1 X127.457 Y108.184 E28.22489
G1 X126.518 Y108.1 E28.33025
G1 X101.368 Y108.1 E31.14086
G1 X100.7 Y108.142 E31.21566
G1 X100.029 Y108.271 E31.29202
G1 X99.38 Y108.484 E31.36835
G1 X98.763 Y108.776 E31.44464
G1 X98.188 Y109.144 E31.52093
G1 X97.664 Y109.582 E31.59725
G1 X97.2 Y110.082 E31.67348
G1 X96.801 Y110.638 E31.74996
G1 X96.477 Y111.238 E31.82617
G1 X96.231 Y111.874 E31.90237
G1 X96.065 Y112.543 E31.9794
G1 X95.981 Y113.482 E32.08476
G1 X95.981 Y113.607 E32.09873
G1 X95.95 Y113.982 E32.14078
G1 X95.943 Y114.027 E32.14587
G1 X95.872 Y114.312 E32.17869
G1 X95.752 Y114.967 E32.25311
G1 X95.717 Y115.443 E32.30645
G1 X95.712 Y115.651 E32.3297
G1 X95.669 Y116.034 E32.37277
G1 X95.662 Y116.068 E32.37665
G1 X95.559 Y116.433 E32.41903
G1 X95.541 Y116.482 E32.42487
G1 X95.383 Y116.819 E32.46646
G1 X95.366 Y116.849 E32.47032
G1 X95.141 Y117.176 E32.51467
G1 X95.117 Y117.206 E32.51897
G1 X94.857 Y117.478 E32.56102
G1 X94.639 Y117.656 E32.59247
G1 X94.266 Y117.876 E32.64087
G1 X94.066 Y117.98 E32.66606
G1 X93.728 Y118.132 E32.70747
G1 X93.37 Y118.273 E32.75047
G1 X93.249 Y118.31 E32.76461
G1 X92.83 Y118.426 E32.8132
G1 X92.547 Y118.494 E32.84573
G1 X92.244 Y118.541 E32.87999
G1 X92.147 Y118.551 E32.89089
G1 X91.803 Y118.58 E32.92947
G1 X91.47 Y118.595 E32.96672
G1 X91.124 Y118.576 E33.00545
G1 X90.785 Y118.538 E33.04357
G1 X90.6 Y118.518 E33.06436
G1 X90.301 Y118.464 E33.09832
G1 X90.042 Y118.391 E33.12839
G1 X89.719 Y118.274 E33.16678
G1 X89.374 Y118.104 E33.20976
G1 X89.349 Y118.089 E33.21302
G1 X89.024 Y117.858 E33.25758
G1 X88.998 Y117.836 E33.26139
G1 X88.732 Y117.572 E33.30327
G1 X88.692 Y117.525 E33.31017
G1 X88.435 Y117.17 E33.35915
G1 X88.006 Y116.65 E33.43448
G1 X87.88 Y116.506 E33.45586
G1 X87.123 Y115.854 E33.56752
G1 X87.104 Y115.834 E33.5706
G1 X86.849 Y115.528 E33.61511
G1 X86.822 Y115.49 E33.62032
G1 X86.638 Y115.176 E33.66099
G1 X86.616 Y115.131 E33.66659
G1 X86.478 Y114.774 E33.70936
G1 X86.469 Y114.745 E33.71276
G1 X86.392 Y114.358 E33.75685
G1 X86.359 Y114.016 E33.79525
G1 X86.366 Y113.862 E33.81248
G1 X86.37 Y113.192 E33.88736
G1 X86.288 Y112.515 E33.96357
G1 X86.122 Y111.853 E34.03984
G1 X85.872 Y111.216 E34.11631
G1 X85.545 Y110.617 E34.19258
G1 X85.145 Y110.064 E34.26885
G1 X84.677 Y109.566 E34.34522
G1 X84.152 Y109.131 E34.42142
G1 X83.576 Y108.765 E34.49768
G1 X82.957 Y108.475 E34.57407
G1 X82.308 Y108.266 E34.65027
G1 X81.636 Y108.139 E34.7267
G1 X80.99 Y108.1 E34.79902
G1 X76.745 Y108.1 E35.27342
G1 X76.382 Y108.079 E35.31405
G1 X76.013 Y108.018 E35.35585
G1 X75.962 Y108.005 E35.36173
G1 X75.616 Y107.889 E35.40251
G1 X75.567 Y107.867 E35.40852
G1 X75.235 Y107.691 E35.45051
G1 X75.182 Y107.656 E35.45761
G1 X74.905 Y107.448 E35.49632
G1 X74.609 Y107.158 E35.54263
G1 X74.515 Y107.048 E35.5588
G1 X74.29 Y106.732 E35.60215
G1 X74.271 Y106.702 E35.60612
G1 X74.096 Y106.347 E35.65035
G1 X74.084 Y106.318 E35.65386
G1 X73.975 Y105.962 E35.69546
G1 X73.96 Y105.89 E35.70368
G1 X73.911 Y105.544 E35.74274
G1 X73.9 Y105.304 E35.76959
G1 X73.9 Y98.745 E36.50258
G1 X73.921 Y98.382 E36.54321
G1 X73.983 Y98.004 E36.58602
G1 X73.993 Y97.966 E36.59041
G1 X74.111 Y97.616 E36.63169
G1 X74.133 Y97.567 E36.63769
G1 X74.31 Y97.234 E36.67984
G1 X74.35 Y97.173 E36.68799
G1 X74.682 Y96.73 E36.74986
G1 X75.05 Y96.171 E36.82465
G1 X75.35 Y95.557 E36.90102
G1 X75.571 Y94.911 E36.97732
G1 X75.708 Y94.243 E37.05352
G1 X75.76 Y93.561 E37.12996
G1 X75.724 Y92.879 E37.20628
G1 X75.604 Y92.208 E37.28246
G1 X75.4 Y91.556 E37.35881
G1 X75.115 Y90.935 E37.43517
G1 X74.756 Y90.359 E37.51102
G1 X74.543 Y90.087 E37.54962
G1 X74.29 Y89.732 E37.59834
G1 X74.271 Y89.702 E37.60231
G1 X74.096 Y89.347 E37.64654
G1 X74.084 Y89.318 E37.65005
G1 X73.975 Y88.962 E37.69166
G1 X73.958 Y88.882 E37.7008
G1 X73.911 Y88.544 E37.73893
G1 X73.9 Y88.304 E37.76578
G1 X73.9 Y81.745 E38.49878
G1 X73.921 Y81.382 E38.53941
G1 X73.982 Y81.013 E38.58121
G1 X73.995 Y80.962 E38.58709
G1 X74.111 Y80.616 E38.62787
G1 X74.133 Y80.567 E38.63387
G1 X74.309 Y80.235 E38.67587
G1 X74.343 Y80.184 E38.68272
G1 X74.558 Y79.898 E38.7227
G1 X74.842 Y79.61 E38.7679
G1 F2700 E33.7679
G0 F9000 X74.304 Y78.67
G0 X130.184 Y89.2
G0 X129.276 Y88.639
G1 F2700 E38.7679
G1 F1125 X128.905 Y89.346 E38.85713
G1 X128.867 Y89.434 E38.86784
G1 X128.688 Y89.77 E38.91039
G1 X128.655 Y89.821 E38.91718
G1 X128.318 Y90.27 E38.97992
G1 X127.95 Y90.829 E39.05471
G1 X127.65 Y91.443 E39.13108
G1 X127.429 Y92.089 E39.20738
G1 X127.292 Y92.757 E39.28359
G1 X127.24 Y93.439 E39.36002
G1 X127.276 Y94.121 E39.43634
G1 X127.396 Y94.792 E39.51252
G1 X127.6 Y95.444 E39.58887
G1 X127.885 Y96.065 E39.66523
G1 X128.244 Y96.641 E39.74108
G1 X128.452 Y96.906 E39.77872
G1 X128.709 Y97.265 E39.82807
G1 X128.729 Y97.298 E39.83238
G1 X129.19 Y98.23 E39.94858
G1 X129.202 Y98.223 E39.95013
G1 X129.506 Y98.697 E40.01306
G1 X129.945 Y99.221 E40.08945
G1 X130.446 Y99.685 E40.16577
G1 X131.001 Y100.082 E40.24202
G1 X131.601 Y100.406 E40.31823
G1 X132.239 Y100.652 E40.39464
G1 X132.907 Y100.817 E40.47154
G1 X133.841 Y100.9 E40.57633
G1 X141.255 Y100.9 E41.40487
G1 X141.618 Y100.921 E41.44551
G1 X141.987 Y100.982 E41.4873
G1 X142.038 Y100.995 E41.49319
G1 X142.384 Y101.111 E41.53397
G1 X142.433 Y101.133 E41.53997
G1 X142.77 Y101.312 E41.58261
G1 X142.821 Y101.345 E41.5894
G1 X143.27 Y101.682 E41.65214
G1 X143.829 Y102.05 E41.72693
G1 X144.443 Y102.35 E41.8033
G1 X145.089 Y102.571 E41.8796
G1 X145.757 Y102.708 E41.95581
G1 X146.439 Y102.76 E42.03225
G1 X147.121 Y102.724 E42.10857
G1 X147.792 Y102.604 E42.18475
G1 X148.444 Y102.4 E42.26109
G1 X149.065 Y102.115 E42.33745
G1 X149.641 Y101.756 E42.4133
G1 X149.906 Y101.548 E42.45095
G1 X150.265 Y101.291 E42.50029
G1 X150.298 Y101.271 E42.5046
G1 X151.23 Y100.81 E42.6208
G1 X151.223 Y100.798 E42.62235
G1 X151.697 Y100.494 E42.68528
G1 X152.221 Y100.055 E42.76168
G1 X152.685 Y99.554 E42.83799
G1 X153.082 Y98.999 E42.91425
G1 X153.406 Y98.399 E42.99045
G1 X153.652 Y97.761 E43.06687
G1 X153.817 Y97.093 E43.14376
G1 X153.9 Y96.159 E43.24855
G1 X153.9 Y91.487 E43.77067
G1 X153.858 Y90.819 E43.84547
G1 X153.729 Y90.148 E43.92183
G1 X153.516 Y89.499 E43.99816
G1 X153.224 Y88.882 E44.07445
G1 X152.856 Y88.307 E44.15074
G1 X152.418 Y87.783 E44.22706
G1 X151.918 Y87.319 E44.30329
G1 X151.362 Y86.92 E44.37977
G1 X150.762 Y86.596 E44.45597
G1 X150.126 Y86.35 E44.53218
G1 X149.457 Y86.184 E44.60921
G1 X148.518 Y86.1 E44.71457
G1 X133.844 Y86.1 E46.35445
G1 X133.176 Y86.142 E46.42925
G1 X132.505 Y86.271 E46.50561
G1 X131.856 Y86.484 E46.58194
G1 X131.239 Y86.776 E46.65823
G1 X130.664 Y87.144 E46.73452
G1 X130.14 Y87.582 E46.81084
G1 X129.676 Y88.082 E46.88707
G1 X129.276 Y88.639 E46.96371
G0 F9000 X129.6 Y88.188
G1 F1125 X129.6 Y78.9 E48.00168
G0 F9000 X128 Y78.9
G1 F1125 X128 Y90.754 E49.32641
G1 F2700 E44.32641
G0 F9000 X129.185 Y90.888
G0 X131.289 Y88.008
G0 X131.2 Y86.801
G1 F2700 E49.32641
G1 F1125 X131.2 Y78.9 E50.20938
G0 F9000 X132.8 Y78.9
G1 F1125 X132.8 Y86.215 E51.02686
G0 F9000 X134.4 Y86.1
G1 F1125 X134.4 Y78.9 E51.83149
G0 F9000 X136 Y78.9
G1 F1125 X136 Y86.1 E52.63612
G0 F9000 X137.6 Y86.1
G1 F1125 X137.6 Y78.9 E53.44075
G0 F9000 X139.2 Y78.9
G1 F1125 X139.2 Y86.1 E54.24538
G0 F9000 X140.8 Y86.1
G1 F1125 X140.8 Y78.9 E55.05001
G0 F9000 X142.4 Y78.9
G1 F1125 X142.4 Y86.1 E55.85463
G0 F9000 X144 Y86.1
G1 F1125 X144 Y78.9 E56.65926
G0 F9000 X145.6 Y78.9
G1 F1125 X145.6 Y86.1 E57.46389
G0 F9000 X147.2 Y86.1
G1 F1125 X147.2 Y78.9 E58.26852
G0 F9000 X148.8 Y78.9
G1 F1125 X148.8 Y86.125 E59.07594
G0 F9000 X150.4 Y86.455
G1 F1125 X150.4 Y78.9 E59.92025
G0 F9000 X152 Y78.9
G1 F1125 X152 Y87.395 E60.8696
G0 F9000 X153.6 Y89.754
G1 F1125 X153.6 Y78.9 E62.08258
G0 F9000 X155.2 Y78.9
G1 F1125 X155.2 Y156.1 E70.70999
G0 F9000 X153.6 Y156.1
G1 F1125 X153.6 Y97.895 E77.21463
G0 F9000 X152 Y100.24
G1 F1125 X152 Y156.1 E83.45722
G0 F9000 X150.4 Y155.778
G1 F1125 X150.4 Y101.22 E89.55429
G0 F9000 X148.8 Y102.236
G1 F1125 X148.8 Y154.768 E95.42496
G0 F9000 X147.2 Y154.288
G1 F1125 X147.2 Y102.709 E101.18912
G0 F9000 X145.6 Y102.676
G1 F1125 X145.6 Y154.326 E106.96122
G0 F9000 X144 Y154.856
G1 F1125 X144 Y102.134 E112.85311
G0 F9000 X142.4 Y101.119
G1 F1125 X142.4 Y155.878 E118.97265
G0 F9000 X140.8 Y156.1
G1 F1125 X140.8 Y100.9 E125.14148
G0 F9000 X139.2 Y100.9
G1 F1125 X139.2 Y156.1 E131.3103
G0 F9000 X137.6 Y156.1
G1 F1125 X137.6 Y100.9 E137.47912
G0 F9000 X136 Y100.9
G1 F1125 X136 Y156.1 E143.64795
G0 F9000 X134.4 Y156.08
G1 F1125 X134.4 Y100.9 E149.81454
G0 F9000 X132.8 Y100.791
G1 F1125 X132.8 Y155.345 E155.91117
G1 F2700 E150.91117
G0 F9000 X131.67 Y155.696
G0 X131.125 Y154.785
G0 X130.911 Y154.079
G0 X130.526 Y146.768
G0 X131.2 Y145.717
G1 F2700 E155.91117
G1 F1125 X131.2 Y130.627 E157.59754
G0 F9000 X129.6 Y132.383
G1 F1125 X129.6 Y143.963 E158.89165
G0 F9000 X128 Y143.191
G1 F1125 X128 Y133.154 E160.01332
G0 F9000 X126.4 Y133.364
G1 F1125 X126.4 Y142.971 E161.08695
G0 F9000 X124.8 Y142.728
G1 F1125 X124.8 Y133.639 E162.10268
G0 F9000 X123.2 Y135.137
G1 F1125 X123.2 Y142.389 E162.91312
G0 F9000 X121.6 Y139.903
G1 F1125 X121.6 Y137.12 E163.22413
G1 F2700 E158.22413
G0 F9000 X120.735 Y136.366
G0 X130.291 Y111.4
G0 X131.2 Y110.844
G1 F2700 E163.22413
G1 F1125 X131.2 Y100.19 E164.41476
G0 F9000 X129.6 Y98.81
G1 F1125 X129.6 Y109.09 E165.56359
G0 F9000 X128 Y108.318
G1 F1125 X128 Y96.25 E166.91224
G1 F2700 E161.91224
G0 F9000 X129.117 Y96.031
G0 X126.476 Y109.164
G0 X126.4 Y108.1
G1 F2700 E166.91224
G1 F1125 X126.4 Y78.9 E170.17546
G0 F9000 X124.8 Y78.9
