;FLAVOR:Marlin
;TIME:12115
;Filament used: 11.4811m
;Layer height: 0.28
;MINX:72.335
;MINY:77.335
;MINZ:0.336
;MAXX:162.664
;MAXY:157.664
;MAXZ:34.506
;Generated with Cura_SteamEngine 4.10.0
M140 S80
M105
M190 S80
M104 S230
M105
M109 S230
M82 ;absolute extrusion mode
; Ender 3 Custom Start G-code
G92 E0 ; Reset Extruder
G28 ; Home all axes
G1 Z2.0 F3000 ; Move Z Axis up little to prevent scratching of Heat Bed
G1 X0.1 Y20 Z0.3 F5000.0 ; Move to start position
G1 X0.1 Y200.0 Z0.3 F1500.0 E15 ; Draw the first line
G1 X0.4 Y200.0 Z0.3 F5000.0 ; Move to side a little
G1 X0.4 Y20 Z0.3 F1500.0 E30 ; Draw the second line
G92 E0 ; Reset Extruder
G1 Z2.0 F3000 ; Move Z Axis up little to prevent scratching of Heat Bed
G1 X5 Y20 Z0.3 F5000.0 ; Move over to prevent blob squish
G92 E0
G92 E0
G1 F2700 E-5
;LAYER_COUNT:118
;LAYER:-6
M107
G0 F9000 X74.342 Y79.11 Z0.336
;TYPE:SUPPORT-INTERFACE
G1 F2700 E0
G1 F1125 X74.452 Y79.015 E0.01624
G1 X74.768 Y78.79 E0.05959
G1 X74.798 Y78.771 E0.06356
G1 X75.153 Y78.596 E0.10779
G1 X75.182 Y78.584 E0.1113
G1 X75.538 Y78.475 E0.15291
G1 X75.61 Y78.46 E0.16113
G1 X75.956 Y78.411 E0.20018
G1 X76.208 Y78.4 E0.22837
G1 X158.755 Y78.4 E9.45333
G1 X159.118 Y78.421 E9.49397
G1 X159.487 Y78.482 E9.53576
G1 X159.538 Y78.495 E9.54164
G1 X159.884 Y78.611 E9.58243
G1 X159.933 Y78.633 E9.58843
G1 X160.265 Y78.809 E9.63042
G1 X160.316 Y78.843 E9.63727
G1 X160.602 Y79.058 E9.67726
G1 X160.891 Y79.342 E9.72254
G1 X160.985 Y79.452 E9.73871
G1 X161.21 Y79.768 E9.78206
G1 X161.229 Y79.798 E9.78603
G1 X161.404 Y80.153 E9.83026
G1 X161.416 Y80.182 E9.83377
G1 X161.525 Y80.537 E9.87527
G1 X161.54 Y80.61 E9.8836
G1 X161.589 Y80.956 E9.92265
G1 X161.6 Y81.196 E9.9495
G1 X161.6 Y153.755 E18.05826
G1 X161.579 Y154.118 E18.0989
G1 X161.517 Y154.495 E18.14159
G1 X161.508 Y154.531 E18.14574
G1 X161.389 Y154.884 E18.18737
G1 X161.369 Y154.929 E18.19287
G1 X161.191 Y155.265 E18.23537
G1 X161.157 Y155.316 E18.24222
G1 X160.947 Y155.596 E18.28133
G1 X160.671 Y155.879 E18.32551
G1 X160.541 Y155.99 E18.34461
G1 X160.232 Y156.21 E18.387
G1 X160.202 Y156.229 E18.39097
G1 X159.847 Y156.404 E18.4352
G1 X159.818 Y156.416 E18.43871
G1 X159.462 Y156.525 E18.48032
G1 X159.39 Y156.54 E18.48853
G1 X159.044 Y156.589 E18.52759
G1 X158.792 Y156.6 E18.55578
G1 X151.245 Y156.6 E19.39918
G1 X150.882 Y156.579 E19.43982
G1 X150.513 Y156.518 E19.48162
G1 X150.462 Y156.505 E19.4875
G1 X150.116 Y156.389 E19.52828
G1 X150.067 Y156.367 E19.53428
G1 X149.73 Y156.188 E19.57693
G1 X149.675 Y156.152 E19.58427
G1 X149.23 Y155.818 E19.64645
G1 X148.671 Y155.45 E19.72124
G1 X148.057 Y155.15 E19.79761
G1 X147.411 Y154.929 E19.87391
G1 X146.743 Y154.792 E19.95012
G1 X146.061 Y154.74 E20.02656
G1 X145.379 Y154.776 E20.10288
G1 X144.708 Y154.896 E20.17906
G1 X144.056 Y155.1 E20.2554
G1 X143.435 Y155.385 E20.33176
G1 X142.859 Y155.744 E20.40761
G1 X142.594 Y155.952 E20.44526
G1 X142.235 Y156.209 E20.4946
G1 X142.202 Y156.229 E20.49891
G1 X141.847 Y156.404 E20.54314
G1 X141.818 Y156.416 E20.54665
G1 X141.462 Y156.525 E20.58826
G1 X141.39 Y156.54 E20.59648
G1 X141.044 Y156.589 E20.63553
G1 X140.792 Y156.6 E20.66372
G1 X133.245 Y156.6 E21.50713
G1 X132.882 Y156.579 E21.54776
G1 X132.513 Y156.518 E21.58956
G1 X132.462 Y156.505 E21.59544
G1 X132.116 Y156.389 E21.63622
G1 X132.067 Y156.367 E21.64222
G1 X131.735 Y156.191 E21.68422
G1 X131.682 Y156.156 E21.69132
G1 X131.405 Y155.948 E21.73003
G1 X131.109 Y155.658 E21.77634
G1 X131.011 Y155.543 E21.79322
G1 X130.79 Y155.232 E21.83586
G1 X130.771 Y155.202 E21.83983
G1 X130.596 Y154.847 E21.88406
G1 X130.584 Y154.818 E21.88757
G1 X130.475 Y154.462 E21.92917
G1 X130.459 Y154.389 E21.93753
G1 X130.411 Y154.043 E21.97656
G1 X130.4 Y153.804 E22.0033
G1 X130.4 Y149.23 E22.51446
G1 X130.358 Y148.562 E22.58926
G1 X130.229 Y147.891 E22.66562
G1 X130.016 Y147.242 E22.74196
G1 X129.724 Y146.625 E22.81824
G1 X129.356 Y146.05 E22.89453
G1 X128.918 Y145.526 E22.97086
G1 X128.418 Y145.062 E23.04709
G1 X127.862 Y144.663 E23.12356
G1 X127.262 Y144.339 E23.19977
G1 X126.625 Y144.093 E23.27608
G1 X125.956 Y143.928 E23.35308
G1 X125.416 Y143.833 E23.41436
G1 X125.362 Y143.819 E23.42059
G1 X125.02 Y143.698 E23.46113
G1 X124.965 Y143.673 E23.46789
G1 X124.638 Y143.494 E23.50955
G1 X124.613 Y143.477 E23.51292
G1 X124.262 Y143.202 E23.56276
G1 X123.707 Y142.822 E23.63792
G1 X122.983 Y142.461 E23.72833
G1 X122.832 Y142.4 E23.74653
G1 X122.505 Y142.234 E23.78752
G1 X122.465 Y142.21 E23.79273
G1 X122.163 Y141.99 E23.83449
G1 X122.121 Y141.954 E23.84067
G1 X121.868 Y141.696 E23.88105
G1 X121.833 Y141.654 E23.88716
G1 X121.614 Y141.342 E23.92976
G1 X121.593 Y141.307 E23.93432
G1 X121.428 Y140.961 E23.97716
G1 X121.301 Y140.597 E24.02024
G1 X121.2 Y140.204 E24.06559
G1 X121.144 Y139.895 E24.10068
G1 X121.116 Y139.68 E24.12491
G1 X121.084 Y139.346 E24.16241
G1 X121.073 Y139.11 E24.18881
G1 X121.071 Y138.847 E24.2182
G1 X121.104 Y138.435 E24.26439
G1 X121.129 Y138.285 E24.28139
G1 X121.223 Y137.915 E24.32405
G1 X121.24 Y137.867 E24.32974
G1 X121.385 Y137.536 E24.37013
G1 X121.419 Y137.474 E24.37803
G1 X121.615 Y137.174 E24.41808
G1 X121.65 Y137.127 E24.42462
G1 X121.898 Y136.856 E24.46568
G1 X121.93 Y136.827 E24.4705
G1 X122.339 Y136.504 E24.52875
G1 X122.726 Y136.21 E24.58306
G1 X123.21 Y135.735 E24.65884
G1 X123.336 Y135.582 E24.68099
G1 X123.672 Y135.208 E24.73718
G1 X123.716 Y135.167 E24.7439
G1 X123.999 Y134.942 E24.78431
G1 X124.03 Y134.92 E24.78855
G1 X124.37 Y134.729 E24.83213
G1 X124.413 Y134.71 E24.83739
G1 X124.766 Y134.582 E24.87935
G1 X124.805 Y134.572 E24.88385
G1 X125.18 Y134.502 E24.92648
G1 X125.574 Y134.461 E24.97075
G1 X125.781 Y134.444 E24.99396
G1 X126.449 Y134.303 E25.07026
G1 X127.095 Y134.078 E25.14671
G1 X127.706 Y133.774 E25.22297
G1 X128.274 Y133.396 E25.29922
G1 X128.789 Y132.947 E25.37558
G1 X129.245 Y132.439 E25.45186
G1 X129.633 Y131.877 E25.52818
G1 X129.946 Y131.27 E25.60451
G1 X130.18 Y130.628 E25.68087
G1 X130.332 Y129.96 E25.75743
G1 X130.4 Y129.116 E25.85205
G1 X130.4 Y114.987 E27.43103
G1 X130.358 Y114.319 E27.50583
G1 X130.229 Y113.648 E27.58219
G1 X130.016 Y112.999 E27.65852
G1 X129.724 Y112.382 E27.73481
G1 X129.356 Y111.807 E27.8111
G1 X128.918 Y111.283 E27.88742
G1 X128.418 Y110.819 E27.96365
G1 X127.862 Y110.42 E28.04013
G1 X127.262 Y110.096 E28.11633
G1 X126.626 Y109.85 E28.19254
G1 X125.957 Y109.684 E28.26957
G1 X125.018 Y109.6 E28.37493
G1 X101.216 Y109.6 E31.0349
G1 X100.548 Y109.642 E31.1097
G1 X99.877 Y109.771 E31.18606
G1 X99.228 Y109.984 E31.26239
G1 X98.611 Y110.276 E31.33868
G1 X98.036 Y110.644 E31.41497
G1 X97.512 Y111.082 E31.49129
G1 X97.048 Y111.582 E31.56752
G1 X96.649 Y112.138 E31.644
G1 X96.325 Y112.738 E31.7202
G1 X96.077 Y113.379 E31.79701
G1 X95.877 Y114.283 E31.90048
G1 X95.845 Y114.511 E31.92621
G1 X95.726 Y114.901 E31.97178
G1 X95.545 Y115.272 E32.01791
G1 X95.525 Y115.305 E32.02222
G1 X95.273 Y115.656 E32.07051
G1 X94.919 Y116.132 E32.1368
G1 X94.455 Y117.013 E32.24808
G1 X94.385 Y117.183 E32.26862
G1 X94.218 Y117.511 E32.30976
G1 X94.2 Y117.541 E32.31367
G1 X93.962 Y117.863 E32.35842
G1 X93.947 Y117.88 E32.36095
G1 X93.669 Y118.151 E32.40434
G1 X93.629 Y118.184 E32.41013
G1 X93.325 Y118.396 E32.45155
G1 X93.3 Y118.41 E32.45475
G1 X92.941 Y118.581 E32.49919
G1 X92.598 Y118.702 E32.53984
G1 X92.175 Y118.81 E32.58862
G1 X91.891 Y118.863 E32.62091
G1 X91.699 Y118.89 E32.64258
G1 X91.314 Y118.927 E32.6858
G1 X91.045 Y118.941 E32.7159
G1 X90.783 Y118.933 E32.7452
G1 X90.424 Y118.894 E32.78555
G1 X90.263 Y118.865 E32.80384
G1 X89.904 Y118.771 E32.84531
G1 X89.845 Y118.75 E32.85231
G1 X89.519 Y118.604 E32.89223
G1 X89.468 Y118.576 E32.89873
G1 X89.157 Y118.369 E32.94048
G1 X89.114 Y118.336 E32.94653
G1 X88.848 Y118.088 E32.98718
G1 X88.815 Y118.052 E32.99263
G1 X88.225 Y117.288 E33.10051
G1 X87.751 Y116.802 E33.17638
G1 X87.594 Y116.67 E33.1993
G1 X87.214 Y116.33 E33.25628
G1 X87.174 Y116.288 E33.26277
G1 X86.949 Y116.005 E33.30317
G1 X86.923 Y115.967 E33.30832
G1 X86.733 Y115.629 E33.35165
G1 X86.719 Y115.598 E33.35545
G1 X86.588 Y115.239 E33.39816
G1 X86.574 Y115.188 E33.40407
G1 X86.507 Y114.825 E33.44532
G1 X86.47 Y114.469 E33.48532
G1 X86.45 Y114.221 E33.51312
G1 X86.308 Y113.554 E33.58933
G1 X86.085 Y112.908 E33.66571
G1 X85.781 Y112.296 E33.74207
G1 X85.402 Y111.728 E33.81838
G1 X84.955 Y111.212 E33.89467
G1 X84.446 Y110.757 E33.97097
G1 X83.884 Y110.369 E34.04729
G1 X83.277 Y110.055 E34.12366
G1 X82.636 Y109.821 E34.19992
G1 X81.967 Y109.669 E34.27659
G1 X81.121 Y109.6 E34.37145
G1 X76.245 Y109.6 E34.91636
G1 X75.882 Y109.579 E34.957
G1 X75.513 Y109.518 E34.99879
G1 X75.462 Y109.505 E35.00468
G1 X75.116 Y109.389 E35.04546
G1 X75.067 Y109.367 E35.05146
G1 X74.735 Y109.191 E35.09345
G1 X74.682 Y109.156 E35.10055
G1 X74.405 Y108.948 E35.13926
G1 X74.109 Y108.658 E35.18557
G1 X74.015 Y108.548 E35.20174
G1 X73.79 Y108.232 E35.24509
G1 X73.771 Y108.202 E35.24906
G1 X73.596 Y107.847 E35.29329
G1 X73.584 Y107.818 E35.2968
G1 X73.475 Y107.462 E35.33841
G1 X73.46 Y107.39 E35.34663
G1 X73.411 Y107.044 E35.38568
G1 X73.4 Y106.804 E35.41253
G1 X73.4 Y99.245 E36.25728
G1 X73.421 Y98.882 E36.29791
G1 X73.483 Y98.504 E36.34072
G1 X73.493 Y98.466 E36.34511
G1 X73.611 Y98.116 E36.38639
G1 X73.633 Y98.067 E36.39239
G1 X73.812 Y97.73 E36.43504
G1 X73.845 Y97.679 E36.44182
G1 X74.182 Y97.23 E36.50456
G1 X74.55 Y96.671 E36.57935
G1 X74.85 Y96.057 E36.65572
G1 X75.071 Y95.411 E36.73203
G1 X75.208 Y94.743 E36.80823
G1 X75.26 Y94.061 E36.88467
G1 X75.224 Y93.379 E36.96099
G1 X75.104 Y92.708 E37.03717
G1 X74.9 Y92.056 E37.11351
G1 X74.615 Y91.435 E37.18987
G1 X74.256 Y90.859 E37.26572
G1 X74.043 Y90.587 E37.30433
G1 X73.79 Y90.232 E37.35305
G1 X73.771 Y90.202 E37.35702
G1 X73.596 Y89.847 E37.40125
G1 X73.584 Y89.818 E37.40475
G1 X73.475 Y89.462 E37.44636
G1 X73.46 Y89.39 E37.45458
G1 X73.411 Y89.044 E37.49363
G1 X73.4 Y88.804 E37.52048
G1 X73.4 Y81.245 E38.36523
G1 X73.421 Y80.882 E38.40587
G1 X73.482 Y80.513 E38.44766
G1 X73.495 Y80.462 E38.45354
G1 X73.611 Y80.116 E38.49433
G1 X73.633 Y80.067 E38.50033
G1 X73.809 Y79.735 E38.54232
G1 X73.843 Y79.684 E38.54917
G1 X74.058 Y79.398 E38.58916
G1 X74.342 Y79.11 E38.63436
G1 F2700 E33.63436
G0 F9000 X73.804 Y78.17
G0 X129.684 Y89.7
G0 X128.776 Y89.139
G1 F2700 E38.63436
G1 F1125 X128.405 Y89.846 E38.72359
G1 X128.367 Y89.934 E38.7343
G1 X128.188 Y90.27 E38.77685
G1 X128.155 Y90.321 E38.78363
G1 X127.818 Y90.77 E38.84637
G1 X127.45 Y91.329 E38.92116
G1 X127.15 Y91.943 E38.99753
G1 X126.929 Y92.589 E39.07384
G1 X126.792 Y93.257 E39.15004
G1 X126.74 Y93.939 E39.22648
G1 X126.776 Y94.621 E39.3028
G1 X126.896 Y95.292 E39.37898
G1 X127.1 Y95.944 E39.45532
G1 X127.385 Y96.565 E39.53168
G1 X127.744 Y97.141 E39.60753
G1 X127.952 Y97.406 E39.64518
G1 X128.209 Y97.765 E39.69452
G1 X128.229 Y97.798 E39.69883
G1 X128.69 Y98.73 E39.81503
G1 X128.702 Y98.723 E39.81659
G1 X129.006 Y99.197 E39.87952
G1 X129.445 Y99.721 E39.95591
G1 X129.946 Y100.185 E40.03222
G1 X130.501 Y100.582 E40.10848
G1 X131.101 Y100.906 E40.18468
G1 X131.739 Y101.152 E40.2611
G1 X132.407 Y101.317 E40.33799
G1 X133.341 Y101.4 E40.44278
G1 X140.755 Y101.4 E41.27133
G1 X141.118 Y101.421 E41.31196
G1 X141.487 Y101.482 E41.35376
G1 X141.538 Y101.495 E41.35964
G1 X141.884 Y101.611 E41.40042
G1 X141.933 Y101.633 E41.40643
G1 X142.268 Y101.811 E41.44882
G1 X142.845 Y102.183 E41.52554
G1 X142.855 Y102.165 E41.52784
G1 X143.327 Y102.401 E41.58682
G1 X143.971 Y102.626 E41.66305
G1 X144.639 Y102.768 E41.73937
G1 X145.32 Y102.826 E41.81575
G1 X146.002 Y102.797 E41.89204
G1 X146.674 Y102.681 E41.96825
G1 X147.328 Y102.482 E42.04464
G1 X147.95 Y102.202 E42.12087
G1 X148.533 Y101.846 E42.19721
G1 X149.066 Y101.418 E42.2736
G1 X149.54 Y100.928 E42.34979
G1 X149.949 Y100.381 E42.42612
G1 X150.286 Y99.787 E42.50244
G1 X150.546 Y99.155 E42.57881
G1 X150.723 Y98.496 E42.65507
G1 X150.816 Y97.819 E42.73144
G1 X150.822 Y97.136 E42.80777
G1 X150.742 Y96.459 E42.88395
G1 X150.596 Y95.858 E42.95307
G1 X150.475 Y95.462 E42.99934
G1 X150.459 Y95.389 E43.0077
G1 X150.411 Y95.046 E43.0464
G1 X150.4 Y94.797 E43.07425
G1 X150.4 Y93.244 E43.24781
G1 X150.423 Y92.862 E43.29058
G1 X150.491 Y92.192 E43.36584
G1 X150.471 Y91.509 E43.4422
G1 X150.366 Y90.836 E43.51832
G1 X150.177 Y90.179 E43.59472
G1 X149.907 Y89.552 E43.67101
G1 X149.56 Y88.965 E43.74721
G1 X149.142 Y88.425 E43.82353
G1 X148.657 Y87.943 E43.89994
G1 X148.118 Y87.526 E43.9761
G1 X147.529 Y87.179 E44.0525
G1 X146.901 Y86.911 E44.1288
G1 X146.245 Y86.723 E44.20506
G1 X145.573 Y86.62 E44.28104
G1 X145.102 Y86.6 E44.33372
G1 X133.344 Y86.6 E45.64773
G1 X132.676 Y86.642 E45.72252
G1 X132.005 Y86.771 E45.79888
G1 X131.356 Y86.984 E45.87522
G1 X130.739 Y87.276 E45.9515
G1 X130.164 Y87.644 E46.0278
G1 X129.64 Y88.082 E46.10412
G1 X129.176 Y88.582 E46.18035
G1 X128.776 Y89.139 E46.25698
G0 F9000 X129.6 Y88.126
G1 F1125 X129.6 Y78.4 E47.3439
G0 F9000 X128 Y78.4
G1 F1125 X128 Y90.528 E48.69926
G1 F2700 E43.69926
G0 F9000 X129.107 Y90.809
G0 X131.257 Y88.209
G0 X131.2 Y87.058
G1 F2700 E48.69926
G1 F1125 X131.2 Y78.4 E49.66682
G0 F9000 X132.8 Y78.4
G1 F1125 X132.8 Y86.635 E50.58712
G0 F9000 X134.4 Y86.6
G1 F1125 X134.4 Y78.4 E51.5035
G0 F9000 X136 Y78.4
G1 F1125 X136 Y86.6 E52.41988
G0 F9000 X137.6 Y86.6
G1 F1125 X137.6 Y78.4 E53.33627
G0 F9000 X139.2 Y78.4
G1 F1125 X139.2 Y86.6 E54.25265
G0 F9000 X140.8 Y86.6
G1 F1125 X140.8 Y78.4 E55.16903
G0 F9000 X142.4 Y78.4
G1 F1125 X142.4 Y86.6 E56.08542
G0 F9000 X144 Y86.6
G1 F1125 X144 Y78.4 E57.0018
G0 F9000 X145.6 Y78.4
G1 F1125 X145.6 Y86.624 E57.92087
G0 F9000 X147.2 Y87.038
G1 F1125 X147.2 Y78.4 E58.8862
G0 F9000 X148.8 Y78.4
G1 F1125 X148.8 Y88.085 E59.96854
G0 F9000 X150.4 Y91.053
G1 F1125 X150.4 Y78.4 E61.38256
G0 F9000 X152 Y78.4
G1 F1125 X152 Y156.6 E70.12173
G0 F9000 X153.6 Y156.6
G1 F1125 X153.6 Y78.4 E78.86089
G0 F9000 X155.2 Y78.4
G1 F1125 X155.2 Y156.6 E87.60006
G0 F9000 X156.8 Y156.6
G1 F1125 X156.8 Y78.4 E96.33923
G0 F9000 X158.4 Y78.4
G1 F1125 X158.4 Y156.6 E105.07839
G0 F9000 X160 Y156.329
G1 F1125 X160 Y78.669 E113.75721
G1 F2700 E108.75721
G0 F9000 X160.498 Y77.728
G0 X149.534 Y98.819
G0 X150.4 Y99.509
G1 F2700 E113.75721
G1 F1125 X150.4 Y156.484 E120.1244
G0 F9000 X148.8 Y155.534
G1 F1125 X148.8 Y101.631 E126.14828
G0 F9000 X147.2 Y102.52
G1 F1125 X147.2 Y154.885 E132.00028
G0 F9000 X145.6 Y154.765
G1 F1125 X145.6 Y102.814 E137.80602
G0 F9000 X144 Y102.633
G1 F1125 X144 Y155.126 E143.67232
G0 F9000 X142.4 Y156.091
G1 F1125 X142.4 Y101.897 E149.72872
G0 F9000 X140.8 Y101.403
G1 F1125 X140.8 Y156.6 E155.89721
G0 F9000 X139.2 Y156.6
G1 F1125 X139.2 Y101.4 E162.06603
G0 F9000 X137.6 Y101.4
G1 F1125 X137.6 Y156.6 E168.23486
G0 F9000 X136 Y156.6
G1 F1125 X136 Y101.4 E174.40368
G0 F9000 X134.4 Y101.4
G1 F1125 X134.4 Y156.6 E180.5725
G0 F9000 X132.8 Y156.565
G1 F1125 X132.8 Y101.352 E186.74278
G0 F9000 X131.2 Y100.945
G1 F1125 X131.2 Y155.747 E192.86713
G1 F2700 E187.86713
G0 F9000 X130.17 Y156.196
G0 X129.625 Y155.285
G0 X129.433 Y154.65
G0 X128.791 Y147.143
G0 X129.6 Y146.431
G1 F2700 E192.86713
G1 F1125 X129.6 Y131.924 E194.48834
G0 F9000 X128 Y133.578
G1 F1125 X128 Y144.762 E195.7382
G0 F9000 X126.4 Y144.037
G1 F1125 X126.4 Y134.313 E196.8249
G0 F9000 X124.8 Y134.573
G1 F1125 X124.8 Y143.582 E197.83169
G0 F9000 X123.2 Y142.569
G1 F1125 X123.2 Y135.744 E198.59441
G0 F9000 X121.6 Y137.196
G1 F1125 X121.6 Y141.318 E199.05506
G1 F2700 E194.05506
G0 F9000 X120.45 Y141.38
G0 X120.093 Y140.07
G0 X120.007 Y138.817
G0 X120.088 Y138.058
G0 X128.791 Y112.9
G0 X129.6 Y112.188
G1 F2700 E199.05506
G1 F1125 X129.6 Y99.865 E200.43221
G0 F9000 X128 Y97.474
G1 F1125 X128 Y110.519 E201.89004
G0 F9000 X126.4 Y109.793
G1 F1125 X126.4 Y78.4 E205.39833
G0 F9000 X124.8 Y78.4
G1 F1125 X124.8 Y109.6 E208.88506
G0 F9000 X123.2 Y109.6
G1 F1125 X123.2 Y78.4 E212.37179
G0 F9000 X121.6 Y78.4
G1 F1125 X121.6 Y109.6 E215.85851
G0 F9000 X120 Y109.6
G1 F1125 X120 Y78.4 E219.34524
G0 F9000 X118.4 Y78.4
G1 F1125 X118.4 Y109.6 E222.83196
G0 F9000 X116.8 Y109.6
G1 F1125 X116.8 Y78.4 E226.31869
G0 F9000 X115.2 Y78.4
